X: 4
P: Pig Squeal Shottish
O: Scandinavia
R: shottish
W: * Fiddles make squealing sounds on the wrong side of the bridge.
Z: John Chambers <jc@trillian.mit.edu>
M: 4/4
L: 1/8
K: D
|: FG | "D"A2 f2 f>e dF | "A7"G2 E4 ed | c2 cB A>g fe |1,3 "D"d2 dB A2 |2,4 "D"d2 d2 d2 :|
|: FG | "D"Az "*"z2 "*"z2 A2 | "G"Bz "*"z2 "*"z2 B2 |1,3 "A7"c2 G2- G>A Bc | "D"B2 A4 :|2,4 "A7"c2 cB A>g fe | "D"d2 d2 d2 :|
